src/assets/image/index/clickdown.svg

<svg width="37" height="127" viewBox="0 0 37 127" fill="none" xmlns="http://www.w3.org/2000/svg">
<path d="M36.9863 107.79L36.9863 94.8164L31.5503 94.8164L31.5503 107.79L20.1841 119.516L5.8528 107.79L5.8528 94.8164L0.416792 94.8164L0.416792 107.79L20.1841 127.001L36.9863 107.79Z" fill="#5E5E5E"/>
<path d="M36.5713 74.1222L36.5713 61.1484L31.1353 61.1484L31.1353 74.1222L19.7691 85.8485L5.43776 74.1222L5.43777 61.1484L0.00175313 61.1484L0.00175256 74.1222L19.7691 93.3334L36.5713 74.1222Z" fill="#949191"/>
<path d="M36.5713 45.8996L36.5713 32.9258L31.1353 32.9258L31.1353 45.8996L19.7691 57.6258L5.43776 45.8996L5.43777 32.9258L0.00175313 32.9258L0.00175256 45.8995L19.7691 65.1107L36.5713 45.8996Z" fill="#ADA8A8"/>
<path d="M36.5693 12.9738L36.5693 0L31.1333 -2.40212e-07L31.1333 12.9738L19.7671 24.7001L5.43581 12.9738L5.43581 -1.37576e-06L-0.000199999 -1.61597e-06L-0.00020056 12.9738L19.7671 32.1849L36.5693 12.9738Z" fill="#D1CCCC"/>
</svg>

<svg width="37" height="127" fill="none" xmlns="http://www.w3.org/2000/svg"><path d="M36.986 107.79V94.816H31.55v12.974l-11.366 11.726L5.853 107.79V94.816H.417v12.974l19.767 19.211 16.802-19.211Z" fill="#5E5E5E"/><path d="M36.571 74.122V61.148h-5.436v12.974L19.77 85.85 5.438 74.121V61.148H.002v12.974l19.767 19.211 16.802-19.21Z" fill="#949191"/><path d="M36.571 45.9V32.926h-5.436V45.9L19.77 57.626 5.438 45.9V32.926H.002V45.9l19.767 19.21L36.571 45.9Z" fill="#ADA8A8"/><path d="M36.57 12.974V0h-5.437v12.974L19.767 24.7 5.436 12.974V0H0v12.974l19.767 19.21 16.802-19.21Z" fill="#D1CCCC"/></svg>
